src/assets/fullscript.svg

<?xml version="1.0" encoding="UTF-8"?>
<svg xmlns="http://www.w3.org/2000/svg" width="680" height="100" viewBox="0 0 680 100" fill="none">
  <path d="M97.6185 1.65163C96.7122 0.74573 95.4958 0.183842 94.2106 0.103573C74.2671 -1.1234 61.3579 8.95616 54.5075 18.4279C47.6339 8.95616 34.7363 -1.13487 14.7814 0.103573C13.4847 0.183842 12.2684 0.74573 11.3619 1.65163C-1.4441 14.4604 -0.0441586 34.6309 0.127965 36.6032C0.208289 38.0367 1.03448 47.9788 7.55223 59.3885C13.7946 70.3166 26.6809 84.8568 52.6829 92.1498C52.8092 92.1958 52.9582 92.2302 53.0961 92.2759C53.1993 92.3103 53.2911 92.3219 53.3946 92.3447C53.5206 92.3791 53.6582 92.3904 53.7961 92.4137C54.0256 92.4595 54.2664 92.4595 54.4962 92.4595C54.7256 92.4595 54.9435 92.4595 55.1615 92.4137C55.2878 92.3904 55.4024 92.3677 55.5289 92.3561C55.6435 92.3333 55.7467 92.3103 55.8616 92.2759C56.0106 92.2302 56.1599 92.1958 56.3205 92.1498C104.378 78.6416 108.543 40.3185 108.83 36.7294C108.956 35.5598 110.712 14.7585 97.6071 1.6631L97.6185 1.65163ZM49.2176 46.2472L49.1716 46.2012L34.9428 30.8813C32.9575 28.7368 29.5954 28.6109 27.4612 30.5946C25.3153 32.5899 25.189 35.938 27.1745 38.0708L49.1716 61.762L49.2176 61.8078V79.9487C49.2176 79.9487 49.183 79.9487 49.1716 79.9487C12.7389 66.6698 10.7652 37.28 10.7078 35.984C10.7078 35.8923 10.6849 35.7891 10.6849 35.6973C10.6619 35.5371 9.29641 20.4003 17.5124 10.5845C17.7305 10.5845 17.937 10.5845 18.155 10.5845C39.0851 10.5845 47.4047 26.386 49.1716 30.3653C49.1716 30.3997 49.2063 30.4224 49.2176 30.457V46.2472ZM98.3071 35.7087C98.3071 35.7891 98.2841 35.8923 98.2841 35.9727C98.2153 37.2914 96.2417 66.6699 59.8091 79.9143C59.7858 79.9143 59.7744 79.9143 59.7631 79.9373V61.8078L59.8091 61.762L81.8062 38.0708C83.7914 35.938 83.6652 32.5899 81.5195 30.5946C79.3736 28.6109 76.0229 28.7368 74.0263 30.8813L59.8091 46.2012L59.7631 46.2472V30.457C59.7631 30.457 59.7975 30.388 59.8091 30.3423C61.5646 26.4205 69.9988 10.5845 90.8485 10.5845C91.055 10.5845 91.25 10.5845 91.4567 10.5845C99.6154 20.3429 98.3071 35.5484 98.2958 35.6973L98.3071 35.7087Z" fill="#88B04B"></path>
  <path d="M196.82 4.32272C197.669 4.32272 198.404 4.6323 199.012 5.25155C199.632 5.87077 199.942 6.60467 199.942 7.44177V15.6407C199.942 16.4893 199.632 17.2232 199.012 17.8309C198.392 18.4387 197.658 18.7598 196.82 18.7598H159.94V42.3359H194.514C195.363 42.3359 196.097 42.6457 196.706 43.2648C197.314 43.8843 197.635 44.6182 197.635 45.455V53.6539C197.635 54.5026 197.325 55.2366 196.706 55.8444C196.086 56.4522 195.352 56.773 194.514 56.773H159.94V83.2392C159.94 84.0877 159.63 84.8216 159.011 85.4294C158.391 86.0369 157.657 86.358 156.819 86.358H147.455C146.606 86.358 145.872 86.0486 145.264 85.4294C144.644 84.81 144.334 84.0763 144.334 83.2392V7.45322C144.334 6.60467 144.644 5.87077 145.264 5.263C145.883 4.64381 146.618 4.33418 147.455 4.33418H196.832L196.82 4.32272Z" fill="#36485C"></path>
  <path d="M210.636 29.4031C210.636 28.5544 210.946 27.8204 211.566 27.2126C212.185 26.5935 212.92 26.284 213.758 26.284H222.547C223.397 26.284 224.131 26.5935 224.739 27.2126C225.347 27.8318 225.669 28.5657 225.669 29.4031V58.7472C225.669 63.3686 226.655 67.0722 228.618 69.8358C230.58 72.6111 233.804 73.9983 238.269 73.9983C242.353 73.9983 245.474 72.6111 247.631 69.8358C249.788 67.0608 250.868 63.3686 250.868 58.7472V29.4031C250.868 28.5544 251.177 27.8204 251.796 27.2126C252.417 26.6049 253.152 26.284 253.989 26.284H262.777C263.627 26.284 264.362 26.5935 264.971 27.2126C265.577 27.8318 265.901 28.5657 265.901 29.4031V83.2522C265.901 84.1006 265.589 84.8349 264.971 85.4427C264.35 86.0618 263.617 86.3715 262.777 86.3715H253.989C253.14 86.3715 252.405 86.0618 251.796 85.4427C251.177 84.8232 250.868 84.0893 250.868 83.2522V80.592C249.089 82.3693 246.896 83.9634 244.282 85.3853C241.666 86.8072 238.497 87.5181 234.802 87.5181C230.098 87.5181 226.208 86.7841 223.121 85.3279C220.034 83.86 217.567 81.8993 215.72 79.4338C213.872 76.9682 212.564 74.1014 211.784 70.8221C211.015 67.5424 210.625 64.1022 210.625 60.4788V29.4031H210.636Z" fill="#36485C"></path>
  <path d="M293.519 83.2511C293.519 84.0995 293.21 84.8332 292.589 85.441C291.972 86.0604 291.238 86.3699 290.4 86.3699H281.609C280.759 86.3699 280.024 86.0604 279.418 85.441C278.797 84.8219 278.488 84.0882 278.488 83.2511V7.45364C278.488 6.60509 278.797 5.87119 279.418 5.26345C280.035 4.64423 280.772 4.33459 281.609 4.33459H290.4C291.248 4.33459 291.98 4.64423 292.589 5.26345C293.21 5.88267 293.519 6.61654 293.519 7.45364V83.2511Z" fill="#36485C"></path>
  <path d="M321.368 83.2511C321.368 84.0995 321.057 84.8332 320.439 85.441C319.819 86.0604 319.085 86.3699 318.247 86.3699H309.459C308.608 86.3699 307.874 86.0604 307.264 85.441C306.647 84.8219 306.338 84.0882 306.338 83.2511V7.45364C306.338 6.60509 306.647 5.87119 307.264 5.26345C307.885 4.64423 308.622 4.33459 309.459 4.33459H318.247C319.095 4.33459 319.83 4.64423 320.439 5.26345C321.046 5.88267 321.368 6.61654 321.368 7.45364V83.2511Z" fill="#36485C"></path>
  <path d="M403.403 52.2786C403.254 53.437 403.173 54.7785 403.173 56.3265C403.173 57.8746 403.254 59.2163 403.403 60.3745C403.633 62.7597 404.173 64.8007 405.021 66.4979C405.871 68.1949 406.925 69.5596 408.198 70.603C409.472 71.6464 410.872 72.4151 412.422 72.9194C413.961 73.4241 415.546 73.6647 417.163 73.6647C419.089 73.6647 420.707 73.5158 422.015 73.2061C423.321 72.8967 424.448 72.4608 425.366 71.876C426.285 71.2912 427.076 70.6488 427.742 69.9151C428.395 69.1812 429.037 68.3554 429.647 67.4268C430.105 66.7386 430.644 66.039 431.264 65.3511C431.882 64.6632 432.619 64.3077 433.456 64.3077H442.247C443.095 64.3077 443.84 64.6172 444.493 65.2363C445.149 65.8555 445.436 66.5897 445.365 67.4268C445.287 69.0436 444.712 71.0045 443.632 73.3209C442.556 75.637 440.882 77.8503 438.606 79.9603C436.336 82.0704 433.421 83.8705 429.874 85.3384C426.328 86.8061 422.094 87.5284 417.163 87.5284C412.929 87.5284 409.106 86.8174 405.709 85.3955C402.311 83.9737 399.364 82.0471 396.863 79.6162C394.36 77.1853 392.388 74.3757 390.965 71.1764C389.543 67.9769 388.668 64.6058 388.359 61.0625C388.21 59.675 388.129 58.1386 388.129 56.4413C388.129 54.7441 388.21 53.1617 388.359 51.7054C388.589 48.1621 389.437 44.7677 390.909 41.534C392.374 38.3004 394.338 35.468 396.804 33.0368C399.272 30.6059 402.219 28.6797 405.652 27.2575C409.082 25.8356 412.915 25.1246 417.163 25.1246C422.094 25.1246 426.328 25.8586 429.874 27.3149C433.421 28.7828 436.336 30.5716 438.606 32.693C440.882 34.8145 442.556 37.0277 443.632 39.3324C444.712 41.6488 445.287 43.6095 445.365 45.2265C445.447 46.075 445.16 46.809 444.493 47.4165C443.84 48.0359 443.084 48.3456 442.247 48.3456H433.456C432.605 48.3456 431.874 48.0015 431.264 47.302C430.644 46.614 430.105 45.9145 429.647 45.2265C429.026 44.2977 428.395 43.4719 427.742 42.7382C427.087 42.004 426.296 41.3505 425.366 40.7771C424.434 40.2039 423.321 39.7567 422.015 39.447C420.707 39.1372 419.089 38.9883 417.163 38.9883C415.546 38.9883 413.961 39.2407 412.422 39.7337C410.886 40.2383 409.472 41.0066 408.198 42.05C406.925 43.0934 405.871 44.4582 405.021 46.1552C404.173 47.8524 403.633 49.8937 403.403 52.2786Z" fill="#36485C"></path>
  <path d="M482.981 40.1476C478.356 40.1476 475.016 41.168 472.973 43.2093C470.931 45.2504 469.909 48.5874 469.909 53.2085V83.2522C469.909 84.1006 469.6 84.8349 468.98 85.4427C468.362 86.0505 467.626 86.3715 466.788 86.3715H457.997C457.149 86.3715 456.418 86.0618 455.808 85.4427C455.188 84.8235 454.879 84.0893 454.879 83.2522V29.4031C454.879 28.5544 455.188 27.8204 455.808 27.2126C456.426 26.5935 457.16 26.284 457.997 26.284H466.788C467.639 26.284 468.373 26.5935 468.98 27.2126C469.6 27.8318 469.909 28.5657 469.909 29.4031V32.0633C471.917 30.2172 474.054 28.7837 476.325 27.786C478.598 26.7884 481.58 26.284 485.287 26.284H486.137C486.985 26.284 487.719 26.5935 488.326 27.2126C488.936 27.8318 489.258 28.5657 489.258 29.4031V37.0285C489.258 37.8773 488.947 38.611 488.326 39.2187C487.709 39.8379 486.974 40.1476 486.137 40.1476H482.981Z" fill="#36485C"></path>
  <path d="M512.222 4.32272C513.07 4.32272 513.804 4.6323 514.411 5.25155C515.032 5.87077 515.34 6.60467 515.34 7.44177V16.4549C515.34 17.3034 515.032 18.0373 514.411 18.6451C513.793 19.2528 513.059 19.5739 512.222 19.5739H502.271C501.423 19.5739 500.686 19.2643 500.08 18.6451C499.473 18.0259 499.15 17.292 499.15 16.4549V7.45322C499.15 6.60467 499.459 5.87077 500.08 5.263C500.7 4.65526 501.434 4.33418 502.271 4.33418H512.222V4.32272ZM514.769 83.2392C514.769 84.0877 514.46 84.8216 513.84 85.4294C513.219 86.0369 512.485 86.358 511.648 86.358H502.857C502.009 86.358 501.272 86.0486 500.665 85.4294C500.058 84.81 499.736 84.0763 499.736 83.2392V29.4012C499.736 28.5527 500.044 27.8188 500.665 27.211C501.285 26.6032 502.019 26.2821 502.857 26.2821H511.648C512.496 26.2821 513.23 26.5918 513.84 27.211C514.446 27.8301 514.769 28.5641 514.769 29.4012V83.2505V83.2392Z" fill="#36485C"></path>
  <path d="M559.929 87.5295C557.542 87.5295 555.397 87.3002 553.516 86.8413C551.634 86.3826 549.97 85.7979 548.545 85.1097C547.123 84.4217 545.906 83.665 544.909 82.8621C543.91 82.0593 543.094 81.3026 542.477 80.6147V105.223C542.477 106.072 542.168 106.806 541.547 107.413C540.927 108.021 540.193 108.342 539.356 108.342H530.564C529.716 108.342 528.979 108.033 528.373 107.413C527.766 106.794 527.443 106.06 527.443 105.223V29.4026C527.443 28.5541 527.752 27.8201 528.373 27.2126C528.993 26.5931 529.727 26.2837 530.564 26.2837H539.356C540.204 26.2837 540.938 26.5931 541.547 27.2126C542.154 27.8318 542.477 28.5655 542.477 29.4026V32.063C543.094 31.3751 543.899 30.6181 544.909 29.8154C545.917 29.013 547.123 28.256 548.545 27.5678C549.97 26.88 551.634 26.2951 553.516 25.8363C555.407 25.3778 557.542 25.1484 559.929 25.1484C563.787 25.1484 567.273 25.8938 570.394 27.3959C573.515 28.8979 576.178 30.9048 578.367 33.4048C580.562 35.9044 582.304 38.7942 583.569 42.0739C584.84 45.3535 585.552 48.7591 585.701 52.3024C585.782 53.4606 585.815 54.8023 585.815 56.3504C585.815 57.8984 585.782 59.2399 585.701 60.3984C585.552 63.9414 584.829 67.3472 583.569 70.6269C582.293 73.9062 580.562 76.7847 578.367 79.296C576.178 81.7959 573.515 83.8023 570.394 85.3046C567.273 86.8069 563.787 87.5522 559.929 87.5522V87.5295ZM570.682 59.561C570.912 57.4051 570.912 55.2496 570.682 53.0937C570.221 48.0825 568.674 44.4818 566.057 42.2918C563.44 40.1013 560.241 39.0008 556.464 39.0008C552.69 39.0008 549.509 40.113 546.928 42.3489C544.346 44.5849 542.867 47.7844 542.477 51.9356C542.328 53.0937 542.246 54.55 542.246 56.3274C542.246 58.1047 542.328 59.561 542.477 60.7194C542.867 64.7214 544.346 67.8863 546.928 70.1913C549.509 72.5074 552.69 73.6542 556.464 73.6542C560.241 73.6542 563.44 72.5534 566.057 70.3629C568.674 68.173 570.221 64.5606 570.682 59.561Z" fill="#36485C"></path>
  <path d="M595.996 26.0187V7.45367C595.996 6.60509 596.305 5.87119 596.925 5.26345C597.543 4.64423 598.28 4.33459 599.117 4.33459H607.906C608.754 4.33459 609.49 4.64423 610.097 5.26345C610.707 5.88267 611.029 6.61654 611.029 7.45367V26.2826H625.943C626.794 26.2826 627.528 26.5923 628.138 27.2115C628.755 27.8307 629.067 28.5644 629.067 29.4015V37.0272C629.067 37.8759 628.755 38.6099 628.138 39.2176C627.517 39.8252 626.78 40.1463 625.943 40.1463H611.029V64.6399C611.029 67.0253 611.658 68.9399 612.931 70.3618C614.207 71.784 616.569 72.4949 620.048 72.4949H627.105C627.953 72.4949 628.688 72.8044 629.294 73.4238C629.915 74.0429 630.226 74.7769 630.226 75.614V83.2397C630.226 84.0882 629.915 84.8219 629.294 85.4296C628.674 86.0374 627.943 86.3585 627.105 86.3585H618.544C611.303 86.3585 605.727 84.6042 601.834 81.1066C597.947 77.5977 595.996 72.2312 595.996 64.984V26.0187Z" fill="#36485C"></path>
  <path d="M366.339 69.2047C366.339 68.3562 366.062 67.6567 365.523 67.1176C364.987 66.5786 364.03 66.0742 362.678 65.6156C361.324 65.157 359.522 64.6867 357.285 64.2278C355.036 63.7692 352.18 63.1501 348.702 62.3704C345.294 61.602 342.471 60.6274 340.233 59.4692C337.984 58.311 336.194 56.9579 334.839 55.4098C333.487 53.8618 332.534 52.1072 331.994 50.1349C331.455 48.1626 331.179 46.0184 331.179 43.702C331.179 41.3854 331.718 39.1037 332.807 36.8677C333.888 34.6315 335.457 32.6362 337.502 30.8932C339.556 29.1502 342.045 27.7397 344.985 26.6618C347.922 25.5839 351.284 25.0334 355.082 25.0334C358.88 25.0334 362.253 25.4577 365.239 26.3063C368.208 27.1549 370.744 28.2787 372.832 29.6662C374.921 31.0537 376.549 32.6592 377.712 34.4823C378.868 36.294 379.524 38.1288 379.681 39.9865C379.762 40.8353 379.467 41.569 378.812 42.1881C378.159 42.8075 377.4 43.117 376.549 43.117H367.623C366.466 43.117 365.591 42.8991 365.006 42.4748C364.434 42.0506 363.792 41.569 363.09 41.0302C362.391 40.4912 361.459 40.0095 360.303 39.5853C359.143 39.1608 357.401 38.9431 355.082 38.9431C352.766 38.9431 350.709 39.2872 348.929 39.9865C347.152 40.6861 346.269 41.9247 346.269 43.702C346.269 44.5505 346.475 45.2615 346.911 45.8462C347.336 46.431 348.149 46.947 349.344 47.4057C350.539 47.8645 352.199 48.3575 354.337 48.8505C356.458 49.3552 359.224 49.9513 362.632 50.6509C369.516 52.1188 374.371 54.4236 377.194 57.554C380.014 60.6848 381.429 64.5719 381.429 69.2047C381.429 71.5211 380.843 73.7801 379.681 75.9817C378.524 78.1833 376.837 80.1558 374.634 81.8988C372.431 83.6417 369.722 85.0292 366.509 86.0729C363.296 87.1163 359.685 87.6323 355.667 87.6323C351.652 87.6323 347.954 87.1504 344.822 86.1874C341.691 85.2242 339.041 83.9628 336.882 82.4148C334.714 80.8667 333.048 79.1351 331.892 77.1972C330.732 75.2707 330.112 73.3672 330.033 71.5211C329.952 70.6726 330.236 69.9384 330.903 69.3192C331.558 68.7001 332.317 68.3903 333.165 68.3903H342.092C343.251 68.3903 344.123 68.6657 344.698 69.2047C345.28 69.7437 345.936 70.3629 346.67 71.0622C347.404 71.7618 348.426 72.3809 349.745 72.9202C351.053 73.459 353.028 73.7343 355.667 73.7343C356.824 73.7343 358.019 73.6539 359.257 73.5047C360.498 73.3558 361.633 73.1035 362.678 72.748C363.722 72.3926 364.594 71.9339 365.282 71.3603C365.97 70.7871 366.328 70.0648 366.328 69.2161L366.339 69.2047Z" fill="#36485C"></path>
  <path d="M674.582 20.3049C674.582 30.8707 667.555 37.9024 656.973 37.9024C646.391 37.9024 639.363 30.8707 639.363 20.3049C639.363 9.73905 646.431 2.70731 656.973 2.70731C667.52 2.70731 674.582 9.73905 674.582 20.3049ZM642.576 20.3049C642.576 28.9396 648.339 34.769 656.973 34.769C665.612 34.769 671.44 28.9396 671.44 20.3049C671.44 11.67 665.686 5.84059 656.973 5.84059C648.26 5.84059 642.576 11.67 642.576 20.3049ZM657.981 11.415C661.906 11.415 664.114 13.4188 664.114 16.6979C664.114 19.1025 662.543 20.5963 660.636 21.2157C660.229 21.3614 660.229 21.4707 660.6 21.6529C661.906 22.418 662.621 23.3653 663.106 24.6405L664.862 28.5389C665.049 28.9396 664.862 29.1583 664.45 29.1583H662.093C661.801 29.1583 661.608 29.0127 661.457 28.7211L660.264 25.8428C659.251 23.6568 658.208 22.5638 655.402 22.5638H653.795V28.6117C653.795 28.9396 653.608 29.1583 653.231 29.1583H651.032C650.69 29.1583 650.468 28.9761 650.468 28.6117V11.9615C650.468 11.6336 650.652 11.415 651.032 11.415H658.021H657.981ZM653.76 19.6855H656.859C659.365 19.6855 660.936 18.7746 660.936 16.9529C660.936 15.2406 659.666 14.5119 657.981 14.5119H653.76V19.6855Z" fill="#36485C"></path>
</svg>

<svg xmlns="http://www.w3.org/2000/svg" width="680" height="100" fill="none" viewBox="0 0 680 100"><path fill="#88b04b" d="M97.619 1.652A5.3 5.3 0 0 0 94.21.104C74.267-1.123 61.358 8.956 54.508 18.428 47.634 8.956 34.736-1.135 14.78.104a5.32 5.32 0 0 0-3.42 1.548C-1.443 14.46-.043 34.63.129 36.603c.08 1.434.906 11.376 7.424 22.786 6.243 10.928 19.129 25.468 45.13 32.76.127.047.276.081.414.127.103.034.195.046.299.069.126.034.263.045.401.069.23.046.47.046.7.046s.447 0 .665-.046c.127-.024.241-.046.368-.058.114-.023.218-.046.333-.08.149-.046.298-.08.459-.126 48.057-13.508 52.222-51.832 52.509-55.42.126-1.17 1.882-21.971-11.223-35.067zM49.217 46.247l-.046-.046-14.23-15.32c-1.984-2.144-5.347-2.27-7.48-.286-2.147 1.995-2.273 5.343-.288 7.476l21.998 23.691.046.046v18.14h-.046C12.739 66.67 10.765 37.28 10.708 35.985c0-.092-.023-.195-.023-.287-.023-.16-1.389-15.297 6.827-25.113h.643c20.93 0 29.25 15.802 31.017 19.781 0 .035.034.057.046.092zm49.09-10.538c0 .08-.024.183-.024.264-.069 1.318-2.042 30.697-38.475 43.941-.023 0-.035 0-.046.023v-18.13l.046-.045 21.997-23.691c1.985-2.133 1.86-5.481-.287-7.476a5.31 5.31 0 0 0-7.493.286L59.81 46.201l-.046.046v-15.79s.035-.069.046-.115C61.565 26.421 70 10.585 90.85 10.585h.608c8.158 9.758 6.85 24.963 6.839 25.112z"/><path fill="#36485c" d="M196.82 4.323c.849 0 1.584.31 2.192.929.62.619.93 1.353.93 2.19v8.199c0 .848-.31 1.582-.93 2.19s-1.354.929-2.192.929h-36.88v23.576h34.574c.849 0 1.583.31 2.192.929.608.62.929 1.353.929 2.19v8.199c0 .849-.31 1.583-.929 2.19-.62.608-1.354.929-2.192.929H159.94v26.466c0 .849-.31 1.583-.929 2.19-.62.608-1.354.929-2.192.929h-9.364c-.849 0-1.583-.31-2.191-.929-.62-.619-.93-1.353-.93-2.19V7.453c0-.848.31-1.582.93-2.19.619-.62 1.354-.929 2.191-.929h49.377zm13.816 25.08c0-.849.31-1.583.93-2.19.619-.62 1.354-.929 2.192-.929h8.789c.85 0 1.584.31 2.192.929s.93 1.353.93 2.19v29.344c0 4.622.986 8.325 2.949 11.089 1.962 2.775 5.186 4.162 9.651 4.162q6.126 0 9.362-4.162c2.157-2.775 3.237-6.467 3.237-11.089V29.403c0-.849.309-1.583.928-2.19.621-.608 1.356-.929 2.193-.929h8.788c.85 0 1.585.31 2.194.929.606.619.93 1.353.93 2.19v53.85c0 .848-.312 1.582-.93 2.19q-.933.928-2.194.928h-8.788c-.849 0-1.584-.31-2.193-.928-.619-.62-.928-1.354-.928-2.19v-2.661c-1.779 1.777-3.972 3.371-6.586 4.793-2.616 1.422-5.785 2.133-9.48 2.133-4.704 0-8.594-.734-11.681-2.19-3.087-1.468-5.554-3.429-7.401-5.894-1.848-2.466-3.156-5.333-3.936-8.612-.769-3.28-1.159-6.72-1.159-10.343V29.403zm82.883 53.848c0 .849-.309 1.582-.93 2.19-.617.62-1.351.929-2.189.929h-8.791c-.85 0-1.585-.31-2.191-.929-.621-.62-.93-1.353-.93-2.19V7.454c0-.849.309-1.583.93-2.19.617-.62 1.354-.93 2.191-.93h8.791q1.274 0 2.189.93c.621.619.93 1.353.93 2.19zm27.849 0c0 .849-.311 1.582-.929 2.19-.62.62-1.354.929-2.192.929h-8.788q-1.278 0-2.195-.929c-.617-.62-.926-1.353-.926-2.19V7.454c0-.849.309-1.583.926-2.19.621-.62 1.358-.93 2.195-.93h8.788c.848 0 1.583.31 2.192.93.607.619.929 1.353.929 2.19zm82.035-30.972c-.149 1.158-.23 2.5-.23 4.047 0 1.549.081 2.89.23 4.048q.346 3.579 1.618 6.124c.85 1.697 1.904 3.062 3.177 4.105a12.9 12.9 0 0 0 4.224 2.316 15.1 15.1 0 0 0 4.741.746c1.926 0 3.544-.15 4.852-.459 1.306-.31 2.433-.745 3.351-1.33s1.71-1.227 2.376-1.96a21.5 21.5 0 0 0 1.905-2.49c.458-.687.997-1.387 1.617-2.075.618-.688 1.355-1.043 2.192-1.043h8.791c.848 0 1.593.31 2.246.928.656.62.943 1.354.872 2.19-.078 1.618-.653 3.578-1.733 5.895q-1.613 3.475-5.026 6.64c-2.27 2.11-5.185 3.91-8.732 5.377-3.546 1.468-7.78 2.19-12.711 2.19-4.234 0-8.057-.71-11.454-2.133q-5.096-2.132-8.846-5.779a26.9 26.9 0 0 1-5.898-8.44 31.5 31.5 0 0 1-2.606-10.114 43 43 0 0 1-.23-4.62c0-1.698.081-3.28.23-4.737a28.9 28.9 0 0 1 2.55-10.171q2.197-4.85 5.895-8.497 3.7-3.646 8.848-5.78c3.43-1.421 7.263-2.132 11.511-2.132 4.931 0 9.165.734 12.711 2.19 3.547 1.468 6.462 3.257 8.732 5.378q3.413 3.183 5.026 6.64c1.08 2.316 1.655 4.276 1.733 5.894.082.848-.205 1.582-.872 2.19-.653.619-1.409.929-2.246.929h-8.791c-.851 0-1.582-.344-2.192-1.044a18 18 0 0 1-1.617-2.075 23 23 0 0 0-1.905-2.489 10.6 10.6 0 0 0-2.376-1.96c-.932-.574-2.045-1.021-3.351-1.331-1.308-.31-2.926-.459-4.852-.459-1.617 0-3.202.253-4.741.746a13 13 0 0 0-4.224 2.316c-1.273 1.043-2.327 2.408-3.177 4.105q-1.272 2.546-1.618 6.124m79.578-12.131c-4.625 0-7.965 1.02-10.008 3.061s-3.064 5.378-3.064 10v30.043c0 .849-.309 1.583-.929 2.19-.618.609-1.354.93-2.192.93h-8.791q-1.273 0-2.189-.93c-.62-.618-.929-1.353-.929-2.19V29.403c0-.849.309-1.583.929-2.19.618-.62 1.352-.929 2.189-.929h8.791c.851 0 1.585.31 2.192.929.62.619.929 1.353.929 2.19v2.66c2.008-1.846 4.145-3.28 6.416-4.277 2.273-.998 5.255-1.502 8.962-1.502h.85c.848 0 1.582.31 2.189.929.61.619.932 1.353.932 2.19v7.626c0 .848-.311 1.582-.932 2.19-.617.619-1.352.929-2.189.929zm29.241-35.825c.848 0 1.582.31 2.189.929.621.619.929 1.353.929 2.19v9.013c0 .848-.308 1.582-.929 2.19-.618.608-1.352.929-2.189.929h-9.951c-.848 0-1.585-.31-2.191-.929-.607-.62-.93-1.353-.93-2.19V7.453c0-.848.309-1.582.93-2.19.62-.608 1.354-.929 2.191-.929h9.951zm2.547 78.916c0 .849-.309 1.583-.929 2.19-.621.608-1.355.929-2.192.929h-8.791c-.848 0-1.585-.31-2.192-.929s-.929-1.353-.929-2.19V29.401c0-.848.308-1.582.929-2.19.62-.608 1.354-.929 2.192-.929h8.791c.848 0 1.582.31 2.192.929.606.62.929 1.353.929 2.19v53.85zm45.16 4.291c-2.387 0-4.532-.23-6.413-.689s-3.546-1.043-4.971-1.731c-1.422-.688-2.639-1.445-3.636-2.248-.999-.803-1.815-1.56-2.432-2.247v24.608c0 .849-.309 1.583-.93 2.19-.62.608-1.354.929-2.191.929h-8.792a2.96 2.96 0 0 1-2.191-.929c-.607-.619-.93-1.353-.93-2.19v-75.82c0-.849.309-1.583.93-2.19.62-.62 1.354-.93 2.191-.93h8.792c.848 0 1.582.31 2.191.93.607.619.93 1.352.93 2.19v2.66c.617-.688 1.422-1.445 2.432-2.248 1.008-.802 2.214-1.559 3.636-2.247 1.425-.688 3.089-1.273 4.971-1.732 1.891-.458 4.026-.688 6.413-.688 3.858 0 7.344.746 10.465 2.248s5.784 3.509 7.973 6.009c2.195 2.5 3.937 5.39 5.202 8.669a31.8 31.8 0 0 1 2.132 10.228c.081 1.159.114 2.5.114 4.048s-.033 2.89-.114 4.048a32.1 32.1 0 0 1-2.132 10.229c-1.276 3.28-3.007 6.158-5.202 8.669-2.189 2.5-4.852 4.506-7.973 6.009-3.121 1.502-6.607 2.247-10.465 2.247zm10.753-27.969q.345-3.233 0-6.467c-.461-5.011-2.008-8.612-4.625-10.802S560.241 39 556.464 39c-3.774 0-6.955 1.112-9.536 3.348-2.582 2.236-4.061 5.435-4.451 9.587-.149 1.158-.231 2.614-.231 4.391s.082 3.234.231 4.392c.39 4.002 1.869 7.167 4.451 9.472 2.581 2.316 5.762 3.463 9.536 3.463 3.777 0 6.976-1.1 9.593-3.291s4.164-5.802 4.625-10.802m25.314-33.541V7.454c0-.849.309-1.583.929-2.19.618-.62 1.355-.93 2.192-.93h8.789c.848 0 1.584.31 2.191.93.61.619.932 1.353.932 2.19v18.829h14.914q1.278 0 2.195.928c.617.62.929 1.353.929 2.19v7.626c0 .849-.312 1.583-.929 2.19-.621.608-1.358.93-2.195.93h-14.914V64.64c0 2.385.629 4.3 1.902 5.722 1.276 1.422 3.638 2.133 7.117 2.133h7.057c.848 0 1.583.31 2.189.929.621.619.932 1.353.932 2.19v7.626c0 .848-.311 1.582-.932 2.19-.62.607-1.351.928-2.189.928h-8.561c-7.241 0-12.817-1.754-16.71-5.251-3.887-3.51-5.838-8.876-5.838-16.123zM366.339 69.205c0-.849-.277-1.548-.816-2.087-.536-.54-1.493-1.044-2.845-1.502-1.354-.459-3.156-.93-5.393-1.388a471 471 0 0 1-8.583-1.858c-3.408-.768-6.231-1.743-8.469-2.9-2.249-1.159-4.039-2.512-5.394-4.06a13.24 13.24 0 0 1-2.845-5.275c-.539-1.972-.815-4.117-.815-6.433 0-2.317.539-4.598 1.628-6.834 1.081-2.236 2.65-4.232 4.695-5.975 2.054-1.743 4.543-3.153 7.483-4.231 2.937-1.078 6.299-1.629 10.097-1.629s7.171.425 10.157 1.273c2.969.849 5.505 1.973 7.593 3.36q3.135 2.082 4.88 4.816 1.734 2.718 1.969 5.505c.081.848-.214 1.582-.869 2.201-.653.62-1.412.929-2.263.929h-8.926c-1.157 0-2.032-.218-2.617-.642-.572-.424-1.214-.906-1.916-1.445-.699-.539-1.631-1.02-2.787-1.445-1.16-.424-2.902-.642-5.221-.642-2.316 0-4.373.344-6.153 1.044-1.777.7-2.66 1.938-2.66 3.715 0 .849.206 1.56.642 2.144.425.585 1.238 1.101 2.433 1.56s2.855.952 4.993 1.444c2.121.505 4.887 1.101 8.295 1.8 6.884 1.469 11.739 3.774 14.562 6.904 2.82 3.13 4.235 7.018 4.235 11.65 0 2.317-.586 4.576-1.748 6.778-1.157 2.201-2.844 4.174-5.047 5.917s-4.912 3.13-8.125 4.174c-3.213 1.043-6.824 1.56-10.842 1.56-4.015 0-7.713-.483-10.845-1.446-3.131-.963-5.781-2.224-7.94-3.772-2.168-1.548-3.834-3.28-4.99-5.218-1.16-1.926-1.78-3.83-1.859-5.676-.081-.848.203-1.583.87-2.202.655-.619 1.414-.929 2.262-.929h8.927c1.159 0 2.031.276 2.606.815q.872.809 1.972 1.857c.734.7 1.756 1.319 3.075 1.858 1.308.539 3.283.814 5.922.814 1.157 0 2.352-.08 3.59-.23a16.8 16.8 0 0 0 3.421-.756c1.044-.355 1.916-.814 2.604-1.388.688-.573 1.046-1.295 1.046-2.144zm308.243-48.9c0 10.566-7.027 17.597-17.609 17.597s-17.61-7.031-17.61-17.597 7.068-17.598 17.61-17.598c10.547 0 17.609 7.032 17.609 17.598m-32.006 0c0 8.635 5.763 14.464 14.397 14.464 8.639 0 14.467-5.83 14.467-14.464S665.686 5.84 656.973 5.84s-14.397 5.829-14.397 14.464m15.405-8.89c3.925 0 6.133 2.004 6.133 5.283 0 2.404-1.571 3.898-3.478 4.518-.407.145-.407.255-.036.437 1.306.765 2.021 1.712 2.506 2.988l1.756 3.898c.187.4 0 .62-.412.62h-2.357c-.292 0-.485-.146-.636-.438l-1.193-2.878c-1.013-2.186-2.056-3.28-4.862-3.28h-1.607v6.049c0 .328-.187.546-.564.546h-2.199c-.342 0-.564-.182-.564-.546v-16.65c0-.328.184-.547.564-.547h6.989zm-4.221 8.27h3.099c2.506 0 4.077-.91 4.077-2.732 0-1.712-1.27-2.441-2.955-2.441h-4.221z"/></svg>
